X:34
T:Drops of Brandy. JGi.034
M:9/8
N:Time Signature 6/8 in MS
L:1/8
Q:3/8=120
S:Joshua Gibbons MS,1823,Tealby,Lincs.
R:Slip Jig
O:Tealby,Lincolnshire
Z:VMP/R.Greig, 2009
K:G
d2B BGB BGB|d2B BGB BGB|d2B BGB BGB|A2A A2B cBA:|
|:GBd gdB gdB|GBd gdB cBA|GBd gdB gdB|A2A A2B cBA:|

